file/penguin-books.svg

<svg clip-rule="evenodd" fill-rule="evenodd" stroke-linejoin="round" stroke-miterlimit="1.41421" viewBox="0 0 560 400" xmlns="http://www.w3.org/2000/svg"><g fill-rule="nonzero" transform="matrix(1.28224 0 0 1.28224 128.655 7.66463)"><path d="m117.829 33.017c-79.571.165-82.928 99.419-82.911 117.663.119 55.307 22.641 116.438 83.354 116.303 60.715-.125 82.976-61.711 82.874-117.018-.034-18.216-3.728-117.091-83.317-116.948"/><path d="m118.272 263.669c-57.681.119-73.236-61.213-73.337-113.755-.034-17.331-2.948-113.994 72.656-114.158 75.59-.146 73.525 97.042 73.542 114.373.102 52.522-15.175 113.42-72.861 113.54" fill="#f60"/><path d="m156.295 123.438c-6.778-10.783-16.27-23.52-17.343-36.636-.663-8.236-.169-17.449-5.724-24.234-1.6-1.98-3.88-3.813-6.148-5.003-2.406-1.237-5.52-2.05-8.246-2.05-2.587 0-5.16.404-7.63 1.141-2.914.886-5.81 1.929-8.825 2.36-3.508.476-6.336.308-9.76-.454-2.028-.453-2.589-.618-4.635-1.067-1.106-.236-4.19-1.123-5.145-.169-2.301 2.309 2.589 5.095 4.039 6.143 3.185 2.31 4.529 3.071 7.562 5.714 4.107 3.575 7.377 7.806 8.637 13.138.358 1.556.477 3.099.494 4.669.306 22.998-38.058 45.55-37.527 86.26.188 14.38 7.869 16.764 7.767 8.758-.119-9.473 3.253-19.713 6.728-28.495.82-2.026 3.393-2.644 2.811.878-.919 5.572-3.185 15.217-2.981 30.953.052 3.784.272 7.619.82 11.351.443 3.054 1.089 6.049 1.991 8.982.734 2.45 1.688 4.856 2.896 7.119.956 1.782 2.062 3.494 3.355 5.044 1.296 1.524 2.675 2.644 4.226 3.856.902.714 1.909 1.356 2.334 2.479.647 1.668-1.467 2.331-2.572 2.831-1.229.551-2.301 1.163-3.458 1.713-1.671.811-3.304 1.667-4.924 2.57-.987.572-2.097.907-3.05 1.55-.953.641-1.432 1.643.035 1.882.68.119 1.413-.075 2.095-.097 1.158-.045 2.383-.215 3.509.216 1.498.59 1.413 2.043 1.481 3.449.067 1.498 1.126 2.002 2.454 1.622 1.568-.433 2.658-1.622 3.869-2.644.867-.736 1.821-1.497 2.859-2.024 2.062-1.027 4.533-.687 6.765-.574 1.225.075 2.981.597 3.985-.425 1.021-1.004.289-2.785-.153-3.908-.443-1.065-.97-2.116-1.498-3.166-.239-.478-.582-.879-.803-1.379-.868-2.002 6.115-3.523 7.139-3.784 3.373-.905 6.916-1.712 10.427-2.025 3.302-.288 6.966-.288 10.098 1.027 1.327.545 2.439 1.497 3.341 2.615.494.642 1.651 2.525.612 3.285-1.604 1.167-3.25 2.189-4.838 3.427-.988.766-1.941 1.577-2.78 2.529-.625.715-.795 1.953.482 1.879 1.702-.075 3.386-.165 5.077-.188 1.208 0 2.502.164 3.523.851 1.673 1.146 2.047 3.552 3.902 4.481.528.261 1.158.261 1.719.091 1.248-.381 1.804-1.646 2.45-2.644.614-.902 1.232-1.781 2.202-2.303.595-.341 1.294-.477 1.974-.477 1.249 0 2.484.022 3.732.164.971.119 2.303.572 3.167-.097 1.639-1.259-2.673-4.097-3.524-4.617-1.979-1.236-4.771-2.525-5.4-5.049-.715-2.974.766-6.047 1.991-8.669 1.316-2.758 3.104-5.311 4.125-8.215.936-2.666 1.65-5.445 2.048-8.26 2.156-15.401-1.401-31.757-5.911-46.473-.533-1.759-1.231-3.502-1.742-5.259-.766-2.763 1.912-3.428 3.284-.715 1.316 2.598 9.939 19.142 12.458 31.473 1.582 7.835 7.493 8.141 7.324-5.787-.219-20.165-7.855-34.756-17.17-49.613"/><path d="m149.193 184.2c1.038 10.167 2.16 27.708-10.241 28.281-3.285.164-7.357-2.139-13.438-1.714-10.342.688-13.409 4.641-21.858 3.143-4.819-.877-8.399-3.596-10.424-8.287-2.301-5.31-2.522-11.358-2.879-17.064-.392-6.389-.392-12.81 0-19.22.272-4.617.766-9.215 1.378-13.81 1.007-7.619 2.624-15.14 4.363-22.617 1.532-6.614 3.117-13.207 5.962-19.4 2.076-4.523 5.197-8.857 9.778-11.166 5.009-2.497 12.046-2.688 16.982-.171 11.164 5.719 10.869 19.051 11.232 29.887.273 8.328 1.305 16.9 2.808 25.091 1.667 9.118 5.36 17.808 6.337 27.047m-18.058-111.682c2.28 2.688 2.145 13.712-1.583 17.564-2.201 2.24-5.9 2.529-8.827 2.932-3.253.478-6.388 1.191-9.573 1.975-3.032.743-2.827-2.475.102-4.76 4.36-3.427 15.315-4.953 17.936-17.711.101-.477.646-1.527 1.945 0m-15.879 2.903c3.05 1.975 7.432.687 9.747-2.882 2.314-3.572 1.719-8.094-1.351-10.074-3.063-1.997-7.423-.713-9.741 2.859-2.334 3.575-1.72 8.095 1.345 10.097" fill="#fff"/><path d="m118.119 68.443c1.16-1.667 3.168-2.284 4.513-1.359 1.351.906 1.499 3.006.363 4.696-1.146 1.663-3.171 2.28-4.519 1.379-1.328-.93-1.497-3.024-.357-4.716"/></g></svg>

<?xml version="1.0" encoding="UTF-8" standalone="no"?>
<!DOCTYPE svg PUBLIC "-//W3C//DTD SVG 1.1//EN" "http://www.w3.org/Graphics/SVG/1.1/DTD/svg11.dtd">
<svg width="100%" height="100%" viewBox="0 0 560 400" version="1.1" xmlns="http://www.w3.org/2000/svg" xmlns:xlink="http://www.w3.org/1999/xlink" xml:space="preserve" xmlns:serif="http://www.serif.com/" style="fill-rule:evenodd;clip-rule:evenodd;stroke-linejoin:round;stroke-miterlimit:1.41421;">
    <g transform="matrix(1.28224,0,0,1.28224,128.655,7.66463)">
        <path d="M117.829,33.017C38.258,33.182 34.901,132.436 34.918,150.68C35.037,205.987 57.559,267.118 118.272,266.983C178.987,266.858 201.248,205.272 201.146,149.965C201.112,131.749 197.418,32.874 117.829,33.017" style="fill-rule:nonzero;"/>
        <path d="M118.272,263.669C60.591,263.788 45.036,202.456 44.935,149.914C44.901,132.583 41.987,35.92 117.591,35.756C193.181,35.61 191.116,132.798 191.133,150.129C191.235,202.651 175.958,263.549 118.272,263.669" style="fill:rgb(255,102,0);fill-rule:nonzero;"/>
        <path d="M156.295,123.438C149.517,112.655 140.025,99.918 138.952,86.802C138.289,78.566 138.783,69.353 133.228,62.568C131.628,60.588 129.348,58.755 127.08,57.565C124.674,56.328 121.56,55.515 118.834,55.515C116.247,55.515 113.674,55.919 111.204,56.656C108.29,57.542 105.394,58.585 102.379,59.016C98.871,59.492 96.043,59.324 92.619,58.562C90.591,58.109 90.03,57.944 87.984,57.495C86.878,57.259 83.794,56.372 82.839,57.326C80.538,59.635 85.428,62.421 86.878,63.469C90.063,65.779 91.407,66.54 94.44,69.183C98.547,72.758 101.817,76.989 103.077,82.321C103.435,83.877 103.554,85.42 103.571,86.99C103.877,109.988 65.513,132.54 66.044,173.25C66.232,187.63 73.913,190.014 73.811,182.008C73.692,172.535 77.064,162.295 80.539,153.513C81.359,151.487 83.932,150.869 83.35,154.391C82.431,159.963 80.165,169.608 80.369,185.344C80.421,189.128 80.641,192.963 81.189,196.695C81.632,199.749 82.278,202.744 83.18,205.677C83.914,208.127 84.868,210.533 86.076,212.796C87.032,214.578 88.138,216.29 89.431,217.84C90.727,219.364 92.106,220.484 93.657,221.696C94.559,222.41 95.566,223.052 95.991,224.175C96.638,225.843 94.524,226.506 93.419,227.006C92.19,227.557 91.118,228.169 89.961,228.719C88.29,229.53 86.657,230.386 85.037,231.289C84.05,231.861 82.94,232.196 81.987,232.839C81.034,233.48 80.555,234.482 82.022,234.721C82.702,234.84 83.435,234.646 84.117,234.624C85.275,234.579 86.5,234.409 87.626,234.84C89.124,235.43 89.039,236.883 89.107,238.289C89.174,239.787 90.233,240.291 91.561,239.911C93.129,239.478 94.219,238.289 95.43,237.267C96.297,236.531 97.251,235.77 98.289,235.243C100.351,234.216 102.822,234.556 105.054,234.669C106.279,234.744 108.035,235.266 109.039,234.244C110.06,233.24 109.328,231.459 108.886,230.336C108.443,229.271 107.916,228.22 107.388,227.17C107.149,226.692 106.806,226.291 106.585,225.791C105.717,223.789 112.7,222.268 113.724,222.007C117.097,221.102 120.64,220.295 124.151,219.982C127.453,219.694 131.117,219.694 134.249,221.009C135.576,221.554 136.688,222.506 137.59,223.624C138.084,224.266 139.241,226.149 138.202,226.909C136.598,228.076 134.952,229.098 133.364,230.336C132.376,231.102 131.423,231.913 130.584,232.865C129.959,233.58 129.789,234.818 131.066,234.744C132.768,234.669 134.452,234.579 136.143,234.556C137.351,234.556 138.645,234.72 139.666,235.407C141.339,236.553 141.713,238.959 143.568,239.888C144.096,240.149 144.726,240.149 145.287,239.979C146.535,239.598 147.091,238.333 147.737,237.335C148.351,236.433 148.969,235.554 149.939,235.032C150.534,234.691 151.233,234.555 151.913,234.555C153.162,234.555 154.397,234.577 155.645,234.719C156.616,234.838 157.948,235.291 158.812,234.622C160.451,233.363 156.139,230.525 155.288,230.005C153.309,228.769 150.517,227.48 149.888,224.956C149.173,221.982 150.654,218.909 151.879,216.287C153.195,213.529 154.983,210.976 156.004,208.072C156.94,205.406 157.654,202.627 158.052,199.812C160.208,184.411 156.651,168.055 152.141,153.339C151.608,151.58 150.91,149.837 150.399,148.08C149.633,145.317 152.311,144.652 153.683,147.365C154.999,149.963 163.622,166.507 166.141,178.838C167.723,186.673 173.634,186.979 173.465,173.051C173.246,152.886 165.61,138.295 156.295,123.438" style="fill-rule:nonzero;"/>
        <path d="M149.193,184.2C150.231,194.367 151.353,211.908 138.952,212.481C135.667,212.645 131.595,210.342 125.514,210.767C115.172,211.455 112.105,215.408 103.656,213.91C98.837,213.033 95.257,210.314 93.232,205.623C90.931,200.313 90.71,194.265 90.353,188.559C89.961,182.17 89.961,175.749 90.353,169.339C90.625,164.722 91.119,160.124 91.731,155.529C92.738,147.91 94.355,140.389 96.094,132.912C97.626,126.298 99.211,119.705 102.056,113.512C104.132,108.989 107.253,104.655 111.834,102.346C116.843,99.849 123.88,99.658 128.816,102.175C139.98,107.894 139.685,121.226 140.048,132.062C140.321,140.39 141.353,148.962 142.856,157.153C144.523,166.271 148.216,174.961 149.193,184.2M131.135,72.518C133.415,75.206 133.28,86.23 129.552,90.082C127.351,92.322 123.652,92.611 120.725,93.014C117.472,93.492 114.337,94.205 111.152,94.989C108.12,95.732 108.325,92.514 111.254,90.229C115.614,86.802 126.569,85.276 129.19,72.518C129.291,72.041 129.836,70.991 131.135,72.518M115.256,75.421C118.306,77.396 122.688,76.108 125.003,72.539C127.317,68.967 126.722,64.445 123.652,62.465C120.589,60.468 116.229,61.752 113.911,65.324C111.577,68.899 112.191,73.419 115.256,75.421" style="fill:white;fill-rule:nonzero;"/>
        <path d="M118.119,68.443C119.279,66.776 121.287,66.159 122.632,67.084C123.983,67.99 124.131,70.09 122.995,71.78C121.849,73.443 119.824,74.06 118.476,73.159C117.148,72.229 116.979,70.135 118.119,68.443" style="fill-rule:nonzero;"/>
    </g>
</svg>
